source/images/leveltwo-icon.svg

<svg height="67" viewBox="0 0 83 67" width="83" xmlns="http://www.w3.org/2000/svg"><g fill="none" fill-rule="evenodd"><circle cx="24.5" cy="24.5" fill="#fff" fill-rule="evenodd" r="24.5"/><circle cx="24.5" cy="24.5" r="23" stroke="#44525e" stroke-width="3"/><path d="m24.5 10c-6.8627528 0-12.5 1.8433819-12.5 4.1783126 0 .6144606 1.470548 9.3397231 2.0833008 12.7806634.2451401 1.5975584 4.2892693 3.8095775 10.4166992 3.8095775 6.1275276 0 10.0490866-2.2120191 10.4166992-3.8095775.6127528-3.4409403 2.0833008-12.1662028 2.0833008-12.7806634-.1224724-2.3349307-5.6372472-4.1783126-12.5-4.1783126zm0 17.9420738c-2.2058709 0-3.9215591-1.7204702-3.9215591-3.9324892 0-2.2120191 1.7156882-3.9324892 3.9215591-3.9324892s3.9215591 1.7204701 3.9215591 3.9324892c0 2.0891073-1.7156882 3.9324892-3.9215591 3.9324892zm0-12.5348399c-4.4117417 0-7.9656882-.7374703-7.9656882-1.7204702 0-.9831957 3.5539465-1.7204701 7.9656882-1.7204701s7.9656882.7372744 7.9656882 1.7204701c0 .9830978-3.5539465 1.7204702-7.9656882 1.7204702zm9.0445979 14.8697706c.2451402 0 .3677103.2457255.2451402.491549v.1229117c-.4901827 2.5806562-.8578929 4.4240381-.8578929 4.6698615-.3676126 1.8433819-4.0441292 3.3181265-8.4558709 3.3181265s-8.0882583-1.4747446-8.4558709-3.3181265c0-.2458234-.3676125-2.0892053-.8578929-4.6698615v-.1228138c0-.3687351.2450425-.4916469.4901827-.4916469.1225701 0 .3677102.1229118.3677102.1229118s3.0636662 2.4578424 8.578441 2.4578424c5.5146772 0 8.5784409-2.4578424 8.5784409-2.4578424s.1224725-.1229118.3676126-.1229118zm-9.0445979-4.4240381c-1.0829356 0-1.9608284-.8803396-1.9608284-1.9662935 0-1.085954.8778928-1.9662936 1.9608284-1.9662936s1.9608284.8803396 1.9608284 1.9662936c0 1.0859539-.8778928 1.9662935-1.9608284 1.9662935z" fill="#44525e" fill-rule="nonzero"/><circle cx="58.5" cy="42.5" fill="#fff" fill-rule="evenodd" r="24.5"/><circle cx="58.5" cy="42.5" r="23" stroke="#44525e" stroke-width="3"/><path d="m44 42.3800802c0 6.7949931 4.2975536 12.5589826 10.2581417 14.5926654.7504835.1416214 1.0239725-.3332823 1.0239725-.7411518 0-.364439-.0128917-1.332185-.0202584-2.6152745-4.1723196.9290361-5.0526413-2.0620071-5.0526413-2.0620071-.6823414-1.776876-1.665797-2.2498914-1.665797-2.2498914-1.3619202-.9535839.103134-.934701.103134-.934701 1.505571.1085764 2.2974922 1.5852151 2.2974922 1.5852151 1.3379785 2.3499705 3.5111575 1.6711321 4.3656957 1.2774247.1362841-.9932378.5239572-1.6711321.9521471-2.055398-3.3306731-.3880426-6.8326223-1.7079537-6.8326223-7.6012907 0-1.6786853.5847325-3.0524125 1.5442463-4.1268466-.1547008-.3889867-.6694496-1.9534307.1473342-4.070198 0 0 1.2587864-.4135344 4.124436 1.5767178 1.1961693-.3417795 2.4798183-.5117252 3.7551797-.5183342 1.2744406.006609 2.5571687.1765547 3.7551797.5183342 2.863808-1.9902522 4.1207527-1.5767178 4.1207527-1.5767178.8186255 2.1167673.3038767 3.6812113.1500967 4.070198.9613554 1.0744341 1.5414837 2.4481613 1.5414837 4.1268466 0 5.9084433-3.5074741 7.2085274-6.8482765 7.5890168.5377698.4749037 1.0175267 1.4133812 1.0175267 2.8484777 0 2.0553981-.0184168 3.7142564-.0184168 4.2184284 0 .4116461.2707265.8903263 1.0313392.7402077 5.9559839-2.0384035 10.2498542-7.7986165 10.2498542-14.5917213 0-8.4944494-6.7165966-15.3800802-15.0013813-15.3800802-8.2820221 0-14.9986187 6.8856308-14.9986187 15.3800802z" fill="#44525e"/></g></svg>

<?xml version="1.0" encoding="UTF-8"?>
<svg width="83px" height="67px" viewBox="0 0 83 67" version="1.1" xmlns="http://www.w3.org/2000/svg" xmlns:xlink="http://www.w3.org/1999/xlink">
    <!-- Generator: Sketch 44 (41411) - https://www.sketchapp.com -->
    <title>Group 9</title>
    <desc>Created with Sketch.</desc>
    <defs>
        <circle id="path-1" cx="24.5" cy="24.5" r="24.5"></circle>
        <circle id="path-2" cx="58.5" cy="42.5" r="24.5"></circle>
    </defs>
    <g id="Page-1" stroke="none" stroke-width="1" fill="none" fill-rule="evenodd">
        <g id="Artboard-2" transform="translate(-231.000000, -427.000000)">
            <g id="Group-9" transform="translate(231.000000, 427.000000)">
                <g id="Oval-5-Copy">
                    <use fill="#FFFFFF" fill-rule="evenodd" xlink:href="#path-1"></use>
                    <circle stroke="#44525E" stroke-width="3" cx="24.5" cy="24.5" r="23"></circle>
                </g>
                <path d="M24.5,10 C17.6372472,10 12,11.8433819 12,14.1783126 C12,14.7927732 13.470548,23.5180357 14.0833008,26.958976 C14.3284409,28.5565344 18.3725701,30.7685535 24.5,30.7685535 C30.6275276,30.7685535 34.5490866,28.5565344 34.9166992,26.958976 C35.529452,23.5180357 37,14.7927732 37,14.1783126 C36.8775276,11.8433819 31.3627528,10 24.5,10 Z M24.5,27.9420738 C22.2941291,27.9420738 20.5784409,26.2216036 20.5784409,24.0095846 C20.5784409,21.7975655 22.2941291,20.0770954 24.5,20.0770954 C26.7058709,20.0770954 28.4215591,21.7975655 28.4215591,24.0095846 C28.4215591,26.0986919 26.7058709,27.9420738 24.5,27.9420738 Z M24.5,15.4072339 C20.0882583,15.4072339 16.5343118,14.6697636 16.5343118,13.6867637 C16.5343118,12.703568 20.0882583,11.9662936 24.5,11.9662936 C28.9117417,11.9662936 32.4656882,12.703568 32.4656882,13.6867637 C32.4656882,14.6698615 28.9117417,15.4072339 24.5,15.4072339 Z M33.5445979,30.2770045 L33.5445979,30.2770045 C33.7897381,30.2770045 33.9123082,30.52273 33.7897381,30.7685535 L33.7897381,30.8914652 C33.2995554,33.4721214 32.9318452,35.3155033 32.9318452,35.5613267 C32.5642326,37.4047086 28.887716,38.8794532 24.4759743,38.8794532 C20.0642326,38.8794532 16.387716,37.4047086 16.0201034,35.5613267 C16.0201034,35.3155033 15.6524909,33.4721214 15.1622105,30.8914652 L15.1622105,30.7686514 C15.1622105,30.3999163 15.407253,30.2770045 15.6523932,30.2770045 C15.7749633,30.2770045 16.0201034,30.3999163 16.0201034,30.3999163 C16.0201034,30.3999163 19.0837696,32.8577587 24.5985444,32.8577587 C30.1132216,32.8577587 33.1769853,30.3999163 33.1769853,30.3999163 C33.1769853,30.3999163 33.2994578,30.2770045 33.5445979,30.2770045 Z M24.5,25.8529664 C23.4170644,25.8529664 22.5391716,24.9726268 22.5391716,23.8866729 C22.5391716,22.8007189 23.4170644,21.9203793 24.5,21.9203793 C25.5829356,21.9203793 26.4608284,22.8007189 26.4608284,23.8866729 C26.4608284,24.9726268 25.5829356,25.8529664 24.5,25.8529664 Z" id="Combined-Shape" fill="#44525E" fill-rule="nonzero"></path>
                <g id="Oval-5">
                    <use fill="#FFFFFF" fill-rule="evenodd" xlink:href="#path-2"></use>
                    <circle stroke="#44525E" stroke-width="3" cx="58.5" cy="42.5" r="23"></circle>
                </g>
                <path d="M44,42.3800802 C44,49.1750733 48.2975536,54.9390628 54.2581417,56.9727456 C55.0086252,57.114367 55.2821142,56.6394633 55.2821142,56.2315938 C55.2821142,55.8671548 55.2692225,54.8994088 55.2618558,53.6163193 C51.0895362,54.5453554 50.2092145,51.5543122 50.2092145,51.5543122 C49.5268731,49.7774362 48.5434175,49.3044208 48.5434175,49.3044208 C47.1814973,48.3508369 48.6465515,48.3697198 48.6465515,48.3697198 C50.1521225,48.4782962 50.9440437,49.9549349 50.9440437,49.9549349 C52.2820222,52.3049054 54.4552012,51.626067 55.3097394,51.2323596 C55.4460235,50.2391218 55.8336966,49.5612275 56.2618865,49.1769616 C52.9312134,48.788919 49.4292642,47.4690079 49.4292642,41.5756709 C49.4292642,39.8969856 50.0139967,38.5232584 50.9735105,37.4488243 C50.8188097,37.0598376 50.3040609,35.4953936 51.1208447,33.3786263 C51.1208447,33.3786263 52.3796311,32.9650919 55.2452807,34.9553441 C56.44145,34.6135646 57.725099,34.4436189 59.0004604,34.4370099 C60.274901,34.4436189 61.5576291,34.6135646 62.7556401,34.9553441 C65.6194481,32.9650919 66.8763928,33.3786263 66.8763928,33.3786263 C67.6950183,35.4953936 67.1802695,37.0598376 67.0264895,37.4488243 C67.9878449,38.5232584 68.5679732,39.8969856 68.5679732,41.5756709 C68.5679732,47.4841142 65.0604991,48.7841983 61.7196967,49.1646877 C62.2574665,49.6395914 62.7372234,50.5780689 62.7372234,52.0131654 C62.7372234,54.0685635 62.7188066,55.7274218 62.7188066,56.2315938 C62.7188066,56.6432399 62.9895331,57.1219201 63.7501458,56.9718015 C69.7061297,54.933398 74,49.173185 74,42.3800802 C74,33.8856308 67.2834034,27 58.9986187,27 C50.7165966,27 44,33.8856308 44,42.3800802 Z" id="Fill-3" fill="#44525E"></path>
            </g>
        </g>
    </g>
</svg>
